X:123
T:O Come, All Ye Faithful
T:Adeste Fideles
C:J. F. Wade's Cantus Diversi 1751
L:1/4
M:4/4
Q:1/4=105
P:BABABAB
V:S lyrics=down 
%%MIDI program 1 19	% Rock Organ
V:A
%%MIDI program 2 60	% Muted Trumpet
V:T clef=treble_8
%%MIDI program 3 57	% Trumpet
%%score (S A) T
K:Fmaj
P:A
[V:S]
F | F2 C F | G2 C2 | A G A B | A2 G F |
F2 E D | (E F) G A | (E2 D3/2) C/2 | C3z |
c2 B A | B2 A2 | G A F G |E2 C
w:1~O come, all ye faith-ful, Joy-ful and tri-um-phant, O come ye, O come_ ye, to Beth_le-hem. Come and be-hold Him, Born the King of an-gels;
%
w:2 Sing, choirs of an-gels, sing in ex-ul-ta-tion * Sing, all ye ci-ti-zens of hea-ven a-bove! Glo-ry to God All glo-ry in the high-est
%
w:3 Yea, Lord, we greet Thee, born this hap-py morn-ing * Je-sus, to Thee_ be_ glo_ry given Word of the Fa-ther Now in flesh ap-pear-ing
%
F | F E F G | F2 C A | A G A B | A2 G
w:O come, let us a- dore Him, O come, let us a- dore Him,
%
[V:A]
C | C2 C C | C2 C2 | C C C D | C2 C A, | (A, =B,) C B, | C2 C C | (C2 =B,3/2) C/2 | C3z | C2 (D/2E/2) F | (F E) F2 | C C D D | C2 C
z | z4 | z3 C | C C C C | C2 C
[V:T]
A, | A,2 A, A, | G,2 G,2 | F, G, F, F, | F,2 E, F, | F,2 G, G, | (G, F,) E, C, | (G,2 F,3/2) E,/2 | E,3z | A,2 B, C | B,2 C2 | C F, A, B, | G,2 E,
A, | A, G, A, B, | A,3 F, | F, E, F, G, | F,2 E,
P:B
[V:S] A | B A G F | E2 (F B) | (A2 G3/2) F/2 | F3 |]
w: O come, let us a- dore Him,_ Christ_ the Lord.
[V:A] F | E F C (C/2=B,/2) | C2 (C D) | (C2 C3/2) A,/2 | A,3 |]
[V:T] C |C C G, G, | G,2 F,2 | (F,2 E,3/2) F,/2 | F,3 |]


